src/Icon/svgs/InfoOutline.svg

<svg width="24" height="24" viewBox="0 0 24 24" fill="none" xmlns="http://www.w3.org/2000/svg">
<path fill-rule="evenodd" clip-rule="evenodd" d="M12 3C16.9674 3 21 7.03257 21 12C21 16.9674 16.9674 21 12 21C7.03257 21 3 16.9674 3 12C3 7.03257 7.03257 3 12 3ZM23 12C23 5.928 18.072 1 12 1C5.928 1 1 5.928 1 12C1 18.072 5.928 23 12 23C18.072 23 23 18.072 23 12ZM11 11V17H13V11H11ZM11 7V9H13V7H11Z" fill="#1B1C1D"/>
</svg>

<svg xmlns="http://www.w3.org/2000/svg" width="24" height="24" fill="none"><path fill-rule="evenodd" d="M12 3c4.967 0 9 4.033 9 9s-4.033 9-9 9-9-4.033-9-9 4.033-9 9-9zm11 9c0-6.072-4.928-11-11-11S1 5.928 1 12s4.928 11 11 11 11-4.928 11-11zm-12-1v6h2v-6h-2zm0-4v2h2V7h-2z" fill="#1B1C1D"/></svg>
